X:4421
T:Mr. Hallowell's Fancy
O:england
M:2/2
L:1/8
S:Armitt MS
N:The notes marked "tr" are marked with a squiggle which I believe to be
N:a trill sign
K:A major
E2|AGAE DEAc|ecec A2 ((3efg)|agfe dcBA|GEAE BEcE|AGAE DEAc|ecec A2 fg|af
bg gfe^d|e2e2e2:||:EE"tr"E2GEBE|EE"tr"E2GEBE|BABc dcBA|BAGF edcB|AGAF CE
Ac|ececA2fg|abca fdBG|A2A2A2:||
